icon-themes/sifr_svg/cmd/lc_moduledialog.svg

<svg viewBox="0 0 24 24" xmlns="http://www.w3.org/2000/svg"><g fill="#555753"><path d="m5 2v12c-2.209139 0-4 1.790861-4 4s1.790861 4 4 4h13.871094l-1.427735-1.427734h-2.328125c-.850015 0-1.774632-.1677-2.697265-.572266h-7.417969c-1.1045695 0-2-.895431-2-2s.8954305-2 2-2h2v-12h12c1.10457 0 2 .895431 2 2s-.89543 2-2 2h-2v2h1.277344l.292968.298828c.156034.158953.294596.31934.429688.480469v-.779297c2.209139 0 4-1.790861 4-4s-1.790861-4-4-4z"/><path d="m16 11v1.503906c.628416.471311.998772 1.210576 1 1.996094 0 1.380712-1.119288 2.5-2.5 2.5-.786206-.000614-1.526324-.371035-1.998047-1h-1.501953v1.857422c1.371429 1.321851 2.804414 1.714844 4.115234 1.714844h2.742188l3.427734 3.427734h1.714844v-1.714844l-3.427734-3.427734v-2.742188c0-1.511964-.368607-2.743805-1.714844-4.115234z"/></g></svg>

<svg xmlns="http://www.w3.org/2000/svg" viewBox="0 0 24 24">
  <path
     style="fill:#555753"
     d="M 5 2 L 5 14 C 2.790861 14 1 15.790861 1 18 C 1 20.209139 2.790861 22 5 22 L 18.871094 22 L 17.443359 20.572266 L 15.115234 20.572266 C 14.265219 20.572266 13.340602 20.404566 12.417969 20 L 5 20 C 3.8954305 20 3 19.104569 3 18 C 3 16.895431 3.8954305 16 5 16 L 7 16 L 7 4 L 19 4 C 20.10457 4 21 4.895431 21 6 C 21 7.104569 20.10457 8 19 8 L 17 8 L 17 10 L 18.277344 10 L 18.570312 10.298828 C 18.726346 10.457781 18.864908 10.618168 19 10.779297 L 19 10 C 21.209139 10 23 8.209139 23 6 C 23 3.790861 21.209139 2 19 2 L 5 2 z "
     />
  <path
     style="fill:#555753"
     d="m 16,11 v 1.503906 c 0.628416,0.471311 0.998772,1.210576 1,1.996094 0,1.380712 -1.119288,2.5 -2.5,2.5 -0.786206,-6.14e-4 -1.526324,-0.371035 -1.998047,-1 H 11 v 1.857422 c 1.371429,1.321851 2.804414,1.714844 4.115234,1.714844 h 2.742188 L 21.285156,23 H 23 v -1.714844 l -3.427734,-3.427734 v -2.742188 c 0,-1.511964 -0.368607,-2.743805 -1.714844,-4.115234 z"
     />
</svg>
